pix_core/i/hide.svg

<!DOCTYPE svg PUBLIC "-//W3C//DTD SVG 1.1//EN" "http://www.w3.org/Graphics/SVG/1.1/DTD/svg11.dtd" [
	<!ENTITY ns_flows "http://ns.adobe.com/Flows/1.0/">
]><svg xmlns="http://www.w3.org/2000/svg" width="16" height="16" viewBox="0 -2.6 16 16" preserveAspectRatio="xMinYMid meet" overflow="visible" enable-background="new 0 -2.6 16 16"><path d="M7.9 10.9c-4.3 0-7.9-3.6-7.9-5.4 0-1.9 3.6-5.5 7.9-5.5 4.3 0 7.9 3.6 7.9 5.5 0 1.8-3.6 5.4-7.9 5.4zm0-8.9c-3.3 0-5.8 2.8-5.9 3.5.1.7 2.6 3.4 5.9 3.4 3.3 0 5.8-2.8 5.9-3.5-.1-.6-2.6-3.4-5.9-3.4zm0 .2c-1.8 0-3.2 1.4-3.2 3.2 0 1.8 1.4 3.2 3.2 3.2 1.8 0 3.2-1.4 3.2-3.2 0-1.7-1.4-3.2-3.2-3.2zm-1.2 3.1c-.6 0-1.1-.5-1.1-1.1 0-.6.5-1.1 1.1-1.1.6 0 1.1.5 1.1 1.1-.1.6-.5 1.1-1.1 1.1z" fill="#888"/></svg>

<?xml version="1.0" encoding="utf-8"?>
<!-- Generator: Adobe Illustrator 15.1.0, SVG Export Plug-In  -->
<!DOCTYPE svg PUBLIC "-//W3C//DTD SVG 1.1//EN" "http://www.w3.org/Graphics/SVG/1.1/DTD/svg11.dtd" [
	<!ENTITY ns_flows "http://ns.adobe.com/Flows/1.0/">
]>
<svg version="1.1"
	 xmlns="http://www.w3.org/2000/svg" xmlns:xlink="http://www.w3.org/1999/xlink" xmlns:a="http://ns.adobe.com/AdobeSVGViewerExtensions/3.0/"
	 x="0px" y="0px" width="16px" height="16px" viewBox="0 -2.6 16 16" style="overflow:visible;enable-background:new 0 -2.6 16 16;"
	 xml:space="preserve" preserveAspectRatio="xMinYMid meet">
<defs>
</defs>
<path style="fill:#29a1c4;" d="M7.9,10.9C3.6,10.9,0,7.3,0,5.5C0,3.6,3.6,0,7.9,0c4.3,0,7.9,3.6,7.9,5.5
	C15.8,7.3,12.2,10.9,7.9,10.9z M7.9,2C4.6,2,2.1,4.8,2,5.5c0.1,0.7,2.6,3.4,5.9,3.4c3.3,0,5.8-2.8,5.9-3.5C13.7,4.8,11.2,2,7.9,2z
	 M7.9,2.2c-1.8,0-3.2,1.4-3.2,3.2c0,1.8,1.4,3.2,3.2,3.2c1.8,0,3.2-1.4,3.2-3.2C11.1,3.7,9.7,2.2,7.9,2.2z M6.7,5.3
	c-0.6,0-1.1-0.5-1.1-1.1c0-0.6,0.5-1.1,1.1-1.1c0.6,0,1.1,0.5,1.1,1.1C7.7,4.8,7.3,5.3,6.7,5.3z"/>
</svg>
